svgs/desktop-filled.svg

<svg width="14" height="14" viewBox="0 0 14 14" fill="none" xmlns="http://www.w3.org/2000/svg">
<path fill-rule="evenodd" clip-rule="evenodd" d="M4 12.2C4 12.147 4.0211 12.0961 4.0586 12.0586C4.0961 12.0211 4.147 12 4.2 12C4.6683 12 5.8317 12 6.3 12C6.353 12 6.4039 11.9789 6.4414 11.9414C6.4789 11.9039 6.5 11.853 6.5 11.8C6.5 11.6257 6.5 11.3743 6.5 11.2C6.5 11.0895 6.4105 11 6.3 11C5.5614 11 2.9546 11 1.5 11C0.9477 11 0.5 10.5523 0.5 10C0.5 8.084 0.5 3.916 0.5 2C0.5 1.4477 0.9477 1 1.5 1C3.9215 1 10.0785 1 12.5 1C13.0523 1 13.5 1.4477 13.5 2C13.5 3.916 13.5 8.084 13.5 10C13.5 10.5523 13.0523 11 12.5 11C11.0454 11 8.4386 11 7.7 11C7.5895 11 7.5 11.0895 7.5 11.2C7.5 11.3743 7.5 11.6257 7.5 11.8C7.5 11.853 7.5211 11.9039 7.5586 11.9414C7.5961 11.9789 7.647 12 7.7 12C8.1683 12 9.3317 12 9.8 12C9.853 12 9.9039 12.0211 9.9414 12.0586C9.9789 12.0961 10 12.147 10 12.2C10 12.3743 10 12.6257 10 12.8C10 12.9105 9.9105 13 9.8 13C8.8863 13 5.1137 13 4.2 13C4.0895 13 4 12.9105 4 12.8C4 12.6257 4 12.3743 4 12.2Z" fill="#242E59"/>
</svg>

<svg xmlns="http://www.w3.org/2000/svg" viewBox="0 0 14 14"><defs><style>.cls-1{fill:#fbfbfb;}.cls-2{fill:#323333;fill-rule:evenodd;}</style></defs><title>desktop</title><g id="图层_2" data-name="图层 2"><g id="图层_1-2" data-name="图层 1"><g id="desktop"><path class="cls-2" d="M2,3a.5.5,0,0,1,.5-.5h9A.5.5,0,0,1,12,3V9a.5.5,0,0,1-.5.5h-9A.5.5,0,0,1,2,9Zm10.5-.5A.5.5,0,0,0,12,2H2a.5.5,0,0,0-.5.5v7A.5.5,0,0,0,2,10H12a.5.5,0,0,0,.5-.5ZM4,12.5a.5.5,0,0,1,.5-.5H6.3a.21.21,0,0,0,.2-.2v-.6a.2.2,0,0,0-.2-.2H1.5a1,1,0,0,1-1-1V2a1,1,0,0,1,1-1h11a1,1,0,0,1,1,1v8a1,1,0,0,1-1,1H7.7a.2.2,0,0,0-.2.2v.6a.21.21,0,0,0,.2.2H9.5a.5.5,0,0,1,.5.5.51.51,0,0,1-.5.5h-5a.51.51,0,0,1-.5-.5Z"/></g></g></g></svg>
